dist/svg/icons/ruby.svg

<svg height="16" width="16" xmlns="http://www.w3.org/2000/svg" viewBox="0 0 16 16">
  <path d="M13 6L8 11V4h3l2 2z m3 0L8 14 0 6l4-4h8l4 4zM8 12.5l6.5-6.5-3-3H4.5L1.5 6l6.5 6.5z" />
</svg>

<svg xmlns="http://www.w3.org/2000/svg" width="16" height="16" viewBox="0 0 16 16"><path d="M13 6l-5 5V4h3l2 2zm3 0l-8 8-8-8 4-4h8l4 4zm-8 6.5L14.5 6l-3-3h-7l-3 3L8 12.5z"/></svg>
